src/assets/userAvatar2.svg

<svg width="45" height="45" viewBox="0 0 40 40" fill="none" xmlns="http://www.w3.org/2000/svg">
<circle cx="20" cy="20" r="20" fill="#D85C34"/>
<path d="M24.8813 13.3081C24.8813 13.5413 24.8646 13.7745 24.8342 14.005C24.848 13.9123 24.8619 13.8169 24.873 13.7241C24.8065 14.1852 24.679 14.633 24.4933 15.0622C24.5293 14.9774 24.5681 14.8926 24.6042 14.8078C24.4185 15.2265 24.1802 15.6186 23.8892 15.979L24.0638 15.7644C23.7756 16.1194 23.4402 16.44 23.0689 16.7156L23.2934 16.5487C22.9165 16.8242 22.5063 17.0547 22.0685 17.2323C22.1572 17.1978 22.2458 17.1607 22.3345 17.1263C21.8856 17.3038 21.4172 17.4257 20.935 17.4893C21.032 17.476 21.1318 17.4628 21.2288 17.4522C20.7438 17.5131 20.2561 17.5131 19.7711 17.4522C19.8681 17.4654 19.9679 17.4787 20.0649 17.4893C19.5827 17.4257 19.1144 17.3038 18.6654 17.1263C18.7541 17.1607 18.8428 17.1978 18.9315 17.2323C18.4936 17.0547 18.0835 16.8269 17.7066 16.5487L17.931 16.7156C17.5597 16.44 17.2244 16.1194 16.9362 15.7644L17.1108 15.979C16.8225 15.6186 16.5814 15.2265 16.3958 14.8078C16.4318 14.8926 16.4706 14.9774 16.5066 15.0622C16.321 14.633 16.1935 14.1852 16.127 13.7241C16.1408 13.8169 16.1547 13.9123 16.1658 14.005C16.102 13.5413 16.102 13.075 16.1658 12.6113C16.1519 12.704 16.1381 12.7994 16.127 12.8921C16.1935 12.4311 16.321 11.9833 16.5066 11.5541C16.4706 11.6388 16.4318 11.7236 16.3958 11.8084C16.5814 11.3898 16.8198 10.9976 17.1108 10.6373L16.9362 10.8519C17.2244 10.4968 17.5597 10.1762 17.931 9.90067L17.7066 10.0676C18.0835 9.79203 18.4936 9.56151 18.9315 9.38398C18.8428 9.41843 18.7541 9.45552 18.6654 9.48997C19.1144 9.31244 19.5827 9.19056 20.0649 9.12697C19.9679 9.14022 19.8681 9.15346 19.7711 9.16406C20.2561 9.10312 20.7438 9.10312 21.2288 9.16406C21.1318 9.15081 21.032 9.13757 20.935 9.12697C21.4172 9.19056 21.8856 9.31244 22.3345 9.48997C22.2458 9.45552 22.1572 9.41843 22.0685 9.38398C22.5063 9.56151 22.9165 9.78938 23.2934 10.0676L23.0689 9.90067C23.4402 10.1762 23.7756 10.4968 24.0638 10.8519L23.8892 10.6373C24.1774 10.9976 24.4185 11.3898 24.6042 11.8084C24.5681 11.7236 24.5293 11.6388 24.4933 11.5541C24.679 11.9833 24.8065 12.4311 24.873 12.8921C24.8591 12.7994 24.8453 12.704 24.8342 12.6113C24.8646 12.8418 24.8785 13.075 24.8813 13.3081C24.884 13.8619 25.3884 14.3945 25.9898 14.368C26.5884 14.3415 27.101 13.9017 27.0983 13.3081C27.0927 12.0389 26.6937 10.7406 25.9122 9.70724C25.7016 9.42903 25.4771 9.15611 25.2277 8.90969C24.9755 8.66063 24.6984 8.446 24.4102 8.23668C23.8864 7.85513 23.3017 7.57427 22.6809 7.35699C20.1785 6.47996 17.1606 7.26161 15.4674 9.23295C15.2346 9.50322 15.0129 9.78408 14.8245 10.0861C14.636 10.3856 14.4892 10.7035 14.3534 11.0268C14.0984 11.6256 13.9682 12.2615 13.9155 12.9054C13.813 14.1666 14.1566 15.4835 14.8439 16.5646C15.5062 17.6085 16.5066 18.5041 17.6761 19.0102C18.0197 19.1586 18.3717 19.2964 18.7375 19.3944C19.1005 19.4898 19.4691 19.5428 19.8432 19.5852C20.5249 19.662 21.2205 19.609 21.8939 19.4792C24.4517 18.981 26.5939 16.8746 26.9902 14.4024C27.0484 14.0421 27.0927 13.6817 27.0927 13.3161C27.0955 12.7623 26.58 12.2297 25.9842 12.2562C25.3856 12.2748 24.8813 12.7146 24.8813 13.3081ZM28.5587 29.8764H14.3395C13.7105 29.8764 13.0814 29.8817 12.4523 29.8764C12.383 29.8764 12.3138 29.8711 12.2472 29.8632C12.3442 29.8764 12.444 29.8897 12.541 29.9003C12.4302 29.8844 12.3248 29.8552 12.2223 29.8155C12.311 29.8499 12.3997 29.887 12.4883 29.9215C12.3775 29.8764 12.275 29.8182 12.178 29.7466L12.4024 29.9135C12.3193 29.8473 12.2417 29.7758 12.1752 29.6963L12.3498 29.9109C12.275 29.8182 12.2168 29.7201 12.1669 29.6141C12.2029 29.6989 12.2417 29.7837 12.2777 29.8685C12.2362 29.7705 12.2085 29.6671 12.1891 29.5638C12.2029 29.6565 12.2168 29.7519 12.2279 29.8447C12.1835 29.524 12.214 29.1849 12.214 28.8616V27.7276C12.214 27.4441 12.2306 27.1632 12.2694 26.8823C12.2556 26.9751 12.2417 27.0705 12.2306 27.1632C12.3082 26.62 12.4579 26.0874 12.6823 25.5813C12.6463 25.6661 12.6075 25.7509 12.5715 25.8357C12.7876 25.3535 13.0648 24.9004 13.4001 24.4844L13.2255 24.699C13.5608 24.2883 13.946 23.9174 14.3783 23.5968L14.1539 23.7637C14.5889 23.4431 15.0628 23.1781 15.5672 22.9714C15.4785 23.0059 15.3898 23.043 15.3011 23.0774C15.8304 22.8654 16.3847 22.7197 16.9556 22.6455C16.8586 22.6588 16.7588 22.672 16.6618 22.6826C17.072 22.6323 17.4793 22.6296 17.8922 22.6296H22.9636C23.4208 22.6296 23.8753 22.627 24.3326 22.6826C24.2356 22.6694 24.1358 22.6561 24.0388 22.6455C24.6069 22.7197 25.1639 22.8628 25.6932 23.0774C25.6046 23.043 25.5159 23.0059 25.4272 22.9714C25.9316 23.1781 26.4055 23.4431 26.8405 23.7637L26.6161 23.5968C27.0456 23.9174 27.4336 24.2857 27.7689 24.699L27.5943 24.4844C27.9296 24.9004 28.2067 25.3535 28.4229 25.8357C28.3869 25.7509 28.3481 25.6661 28.3121 25.5813C28.5338 26.0874 28.6862 26.6174 28.7638 27.1632C28.7499 27.0705 28.7361 26.9751 28.725 26.8823C28.7776 27.2824 28.7804 27.6799 28.7804 28.0826V29.3942C28.7804 29.5452 28.7859 29.6963 28.7665 29.8447C28.7804 29.7519 28.7943 29.6565 28.8053 29.5638C28.7887 29.6698 28.7582 29.7705 28.7167 29.8685C28.7527 29.7837 28.7915 29.6989 28.8275 29.6141C28.7804 29.7201 28.7194 29.8182 28.6446 29.9109L28.8192 29.6963C28.7499 29.7758 28.6751 29.8499 28.5919 29.9135L28.8164 29.7466C28.7194 29.8182 28.6169 29.8738 28.506 29.9215C28.5947 29.887 28.6834 29.8499 28.7721 29.8155C28.6695 29.8552 28.5615 29.8817 28.4534 29.9003C28.5504 29.887 28.6501 29.8738 28.7471 29.8632C28.6862 29.8711 28.6224 29.8738 28.5587 29.8764C28.2733 29.8791 27.9795 29.993 27.7744 30.1865C27.5832 30.3693 27.4363 30.6713 27.4502 30.9363C27.4779 31.5033 27.9379 32.0041 28.5587 31.9962C29.6367 31.9803 30.5845 31.3073 30.9004 30.3189C31.0251 29.9268 30.9974 29.5055 30.9974 29.1027C30.9974 28.1807 31.0279 27.2665 30.8616 26.3524C30.6177 25.0143 29.9138 23.7557 28.9494 22.7674C27.9851 21.7791 26.6881 21.0531 25.3164 20.7298C24.5293 20.5443 23.7368 20.5152 22.9331 20.5152H18.0169C17.1939 20.5152 16.3764 20.5523 15.5755 20.7563C14.2148 21.1008 12.9345 21.8347 11.9895 22.831C11.0362 23.8352 10.3462 25.0965 10.1217 26.4425C9.97207 27.346 10.0026 28.2522 10.0026 29.1637C10.0026 29.5823 9.97761 30.0195 10.1356 30.4196C10.3406 30.9337 10.6676 31.3391 11.1471 31.6438C11.5212 31.8796 11.9951 31.9935 12.4385 31.9988C12.6546 32.0015 12.8708 31.9988 13.0869 31.9988H28.5615C29.1407 31.9988 29.6977 31.5113 29.67 30.939C29.6422 30.3613 29.1822 29.8764 28.5587 29.8764Z" fill="white"/>
</svg>

<svg width="45" height="45" viewBox="0 0 40 40" fill="none" xmlns="http://www.w3.org/2000/svg"><circle cx="20" cy="20" r="20" fill="#D85C34"/><path d="M24.881 13.308c0 .233-.016.466-.047.697a9.97 9.97 0 00.039-.28 5.25 5.25 0 01-.38 1.337c.036-.085.075-.17.111-.254-.185.418-.424.81-.715 1.171l.175-.215a5.522 5.522 0 01-.995.952l.224-.167a5.717 5.717 0 01-1.224.683c.088-.034.177-.071.265-.106-.448.178-.917.3-1.399.363.097-.013.197-.026.294-.037a5.831 5.831 0 01-1.458 0c.097.013.197.027.294.037a5.898 5.898 0 01-1.4-.363c.09.035.178.072.267.106a5.6 5.6 0 01-1.225-.683l.224.167a5.521 5.521 0 01-.995-.952l.175.215a5.34 5.34 0 01-.715-1.171c.036.085.075.17.11.254a5.254 5.254 0 01-.379-1.338c.014.093.028.188.039.281a5.098 5.098 0 010-1.394 9.657 9.657 0 00-.039.281c.067-.46.194-.909.38-1.338-.036.085-.075.17-.111.254.185-.418.424-.81.715-1.17l-.175.214c.288-.355.624-.676.995-.951l-.224.167a5.708 5.708 0 011.224-.684c-.088.034-.177.072-.266.106.45-.178.918-.3 1.4-.363a14.75 14.75 0 01-.294.037c.485-.06.973-.06 1.458 0a11.119 11.119 0 00-.294-.037c.482.064.95.185 1.4.363-.09-.034-.178-.072-.267-.106a5.6 5.6 0 011.225.684L23.07 9.9c.371.275.707.596.995.95l-.175-.214c.288.36.53.753.715 1.171-.036-.084-.075-.17-.11-.254.185.43.313.877.379 1.338a9.657 9.657 0 01-.039-.28c.03.23.044.463.047.696.003.554.507 1.087 1.109 1.06.598-.027 1.111-.466 1.108-1.06-.005-1.27-.404-2.567-1.186-3.6a7.352 7.352 0 00-.684-.798 6.988 6.988 0 00-.818-.673 6.626 6.626 0 00-1.73-.88c-2.502-.877-5.52-.095-7.213 1.876-.232.27-.454.551-.643.853-.188.3-.335.617-.47.94a6.023 6.023 0 00-.438 1.88c-.103 1.26.24 2.577.928 3.659.662 1.043 1.663 1.94 2.832 2.445a7.74 7.74 0 001.062.384 7.62 7.62 0 001.105.191 6.837 6.837 0 002.05-.106c2.559-.498 4.7-2.604 5.097-5.077.058-.36.103-.72.103-1.086.003-.554-.513-1.086-1.109-1.06-.598.019-1.103.459-1.103 1.052zm3.678 16.568h-14.22c-.629 0-1.258.006-1.887 0-.069 0-.138-.005-.205-.013.097.013.197.027.294.037a1.447 1.447 0 01-.319-.084c.089.034.178.071.266.106a1.422 1.422 0 01-.31-.175l.224.166a1.566 1.566 0 01-.227-.217l.175.215a1.443 1.443 0 01-.183-.297c.036.085.075.17.11.255a1.483 1.483 0 01-.088-.305c.014.093.028.188.039.28-.044-.32-.014-.66-.014-.982v-1.134c0-.284.017-.565.055-.846-.013.093-.027.188-.038.281a5.99 5.99 0 01.451-1.582c-.036.085-.075.17-.11.255.216-.482.493-.936.828-1.352l-.175.215a6.44 6.44 0 011.153-1.102l-.224.167a6.59 6.59 0 011.413-.793c-.088.035-.177.072-.266.106a6.803 6.803 0 011.655-.432 9.846 9.846 0 01-.294.038c.41-.05.817-.053 1.23-.053h5.072c.457 0 .911-.003 1.369.053a11.333 11.333 0 00-.294-.038 6.718 6.718 0 011.654.432l-.266-.106a6.59 6.59 0 011.413.793l-.224-.167c.43.32.818.689 1.153 1.102l-.175-.215c.336.416.613.87.829 1.352-.036-.085-.075-.17-.11-.255a6.1 6.1 0 01.45 1.582 9.617 9.617 0 01-.038-.28c.053.4.055.797.055 1.2v1.311c0 .151.006.302-.014.45.014-.092.028-.188.04-.28a1.289 1.289 0 01-.09.305l.111-.255a1.331 1.331 0 01-.182.297l.174-.215a1.55 1.55 0 01-.227.217l.224-.166c-.097.071-.2.127-.31.175l.266-.107a1.58 1.58 0 01-.319.085c.097-.013.197-.026.294-.037a2.17 2.17 0 01-.188.013c-.286.003-.58.117-.785.31-.19.183-.338.485-.324.75.028.567.488 1.068 1.109 1.06 1.078-.016 2.025-.689 2.341-1.677.125-.392.097-.813.097-1.216 0-.922.03-1.837-.135-2.75-.244-1.339-.948-2.597-1.913-3.586a7.567 7.567 0 00-3.633-2.037c-.787-.186-1.58-.215-2.383-.215h-4.916c-.823 0-1.64.037-2.441.241-1.361.345-2.642 1.079-3.587 2.075-.953 1.004-1.643 2.265-1.867 3.611-.15.904-.12 1.81-.12 2.722 0 .418-.024.855.134 1.256a2.5 2.5 0 001.011 1.224c.374.236.848.35 1.291.355.217.003.433 0 .649 0H28.56c.58 0 1.137-.488 1.109-1.06a1.106 1.106 0 00-1.111-1.063z" fill="#fff"/></svg>
